assets/logos/color_logo/apple2.svg

<?xml version="1.0" encoding="UTF-8" standalone="no"?>
<svg
   xmlns:dc="http://purl.org/dc/elements/1.1/"
   xmlns:cc="http://creativecommons.org/ns#"
   xmlns:rdf="http://www.w3.org/1999/02/22-rdf-syntax-ns#"
   xmlns:svg="http://www.w3.org/2000/svg"
   xmlns="http://www.w3.org/2000/svg"
   xmlns:sodipodi="http://sodipodi.sourceforge.net/DTD/sodipodi-0.dtd"
   xmlns:inkscape="http://www.inkscape.org/namespaces/inkscape"
   width="500"
   height="200"
   viewBox="0 0 500 200"
   version="1.1"
   id="svg200"
   sodipodi:docname="apple2.svg"
   style="fill:none"
   inkscape:version="0.92.5 (2060ec1f9f, 2020-04-08)">
  <metadata
     id="metadata204">
    <rdf:RDF>
      <cc:Work
         rdf:about="">
        <dc:format>image/svg+xml</dc:format>
        <dc:type
           rdf:resource="http://purl.org/dc/dcmitype/StillImage" />
        <dc:title></dc:title>
      </cc:Work>
    </rdf:RDF>
  </metadata>
  <sodipodi:namedview
     pagecolor="#ffffff"
     bordercolor="#666666"
     borderopacity="1"
     objecttolerance="10"
     gridtolerance="10"
     guidetolerance="10"
     inkscape:pageopacity="0"
     inkscape:pageshadow="2"
     inkscape:window-width="1366"
     inkscape:window-height="740"
     id="namedview202"
     showgrid="false"
     inkscape:pagecheckerboard="true"
     inkscape:zoom="1.0319125"
     inkscape:cx="283"
     inkscape:cy="83"
     inkscape:window-x="0"
     inkscape:window-y="0"
     inkscape:window-maximized="1"
     inkscape:current-layer="svg200" />
  <g
     clip-path="url(#clip0)"
     id="g193"
     transform="matrix(0.91823043,0,0,0.91823043,0.05278295,20.439667)">
    <path
       d="M 93.2541,29.663 C 99.4351,22.881 102.656,13.357 103.1,0.547031 l 0.016,-0.4649998 -0.455,0.0929998 C 80.9531,4.61603 69.7421,18.222 69.3391,40.614 l -0.008,0.436 0.431,-0.067 c 10.341,-1.619 18.025,-5.323 23.492,-11.32 z"
       id="path167"
       inkscape:connector-curvature="0"
       style="fill:#6ab510" />
    <path
       d="m 18.5479,144.838 0.399,0.574 c 3.588,5.176 7.703,10.211 12.229,14.971 3.447,3.623 8.938,5.617 15.46,5.617 4.78,0 9.736,-1.124 12.935,-2.934 6.618,-3.74 10.125,-3.748 12.685,-3.752 0.514,0 0.994,-0.002 1.456,-0.029 l 0.418,-0.027 c 0.554,-0.035 1.1259,-0.074 1.7709,-0.074 2.27,0 5.6601,0.445 11.8231,3.928 4.301,1.805 8.4719,2.718 12.3971,2.718 0.001,0 0.001,0 0.002,0 10.686,0 20.056,-6.688 28.644,-20.431 l 0.351,-0.561 z"
       id="path169"
       inkscape:connector-curvature="0"
       style="fill:#1050af" />
    <path
       d="m 130.387,59.085 c 1.429,-1.424 2.969,-2.828 4.623,-4.208 l 0.277,-0.231 -0.228,-0.281 C 127.004,44.429 115.974,39.071 103.162,38.869 l -0.587,-0.003 c -6.4925,0 -12.2345,1.217 -16.6035,3.519 -5.666,2.984 -9.88,3.646 -9.921,3.652 -0.074,0.01 -0.538,0.028 -1.81,0.028 -1.544,0 -2.877,-0.025 -3.037,-0.048 l -0.102,-0.013 c -1.817,-0.235 -6.448,-0.997 -10.202,-2.998 -5.102,-2.72 -10.786,-4.159 -16.437,-4.159 l -0.372,0.002 c -14.942,0.167 -27.433,7.448 -35.19402,20.236 z"
       id="path171"
       inkscape:connector-curvature="0"
       style="fill:#6ab510" />
    <path
       d="m 117.86,80.3271 c 1.47,-7.11 5.439,-14.013 11.911,-20.619 l 0.61,-0.623 H 8.89473 l -0.107,0.177 c -3.723,6.178 -6.189,13.324 -7.36,21.064 z"
       id="path173"
       inkscape:connector-curvature="0"
       style="fill:#ffbd11" />
    <path
       d="m 120.706,101.311 c -2.938,-6.035 -4.381,-13.008 -2.919,-20.542 l 0.084,-0.437 H 1.43978 l -0.046,0.31 C 0.408779,87.353 0.408779,94.3 1.31978,101.31 H 120.706 Z"
       id="path175"
       inkscape:connector-curvature="0"
       style="fill:#e78402" />
    <path
       d="M 7.03843,123.325 H 140.096 l 0.779,-1.685 -0.32,-0.158 c -6.368,-3.153 -14.905,-10.055 -19.765,-19.967 l -0.101,-0.205 H 1.31543 l 0.055,0.414 c 0.812,6.073 2.472,13.45 5.668,21.601 z"
       id="path177"
       inkscape:connector-curvature="0"
       style="fill:#c62932" />
    <path
       d="M 18.5496,144.838 H 129.106 c 4.221,-6.841 7.701,-14.373 10.758,-20.992 l 0.24,-0.52 H 7.05957 l 0.201,0.502 c 2.90803,7.264 6.68503,14.283 11.28903,21.01 z"
       id="path179"
       inkscape:connector-curvature="0"
       style="fill:#832973" />
    <path
       d="m 172.9,74.9196 h -11.544 c -6.788,0 -12.232,5.5424 -12.232,12.331 0,6.7886 5.411,12.2326 12.232,12.2326 h 6.854 v 17.2828 h -12.265 c -15.381,0 -28.827,-14.758 -28.827,-29.745 0,-16.2991 13.217,-29.3844 28.598,-29.3844 h 37.255 V 116.799 H 172.9 Z"
       id="path181"
       inkscape:connector-curvature="0"
       style="fill:#ffffff" />
    <path
       d="m 224.619,134.082 h -20.07 V 57.6366 h 37.255 c 15.381,0 28.597,13.0853 28.597,29.3844 0,14.987 -13.446,29.745 -28.826,29.745 H 229.309 V 99.4832 h 6.854 c 6.789,0 12.233,-5.4112 12.233,-12.2326 0,-6.8214 -5.411,-12.331 -12.233,-12.331 h -11.544 z"
       id="path183"
       inkscape:connector-curvature="0"
       style="fill:#ffffff" />
    <path
       d="M 298.572,134.082 H 278.501 V 57.6366 h 37.255 c 15.381,0 28.598,13.0853 28.598,29.3844 0,14.987 -13.446,29.745 -28.827,29.745 H 303.261 V 99.4832 h 6.854 c 6.789,0 12.233,-5.4112 12.233,-12.2326 0,-6.8214 -5.411,-12.331 -12.233,-12.331 h -11.543 z"
       id="path185"
       inkscape:connector-curvature="0"
       style="fill:#ffffff" />
    <path
       d="M 372.656,39.5336 V 116.766 H 352.585 V 39.5336 Z"
       id="path187"
       inkscape:connector-curvature="0"
       style="fill:#ffffff" />
    <path
       d="m 448.083,57.6366 v 17.2502 l -11.314,19.6115 h -22.137 l 11.315,-19.5459 h -10.79 c -6.789,0 -12.232,5.5424 -12.232,12.331 0,6.7886 5.411,12.2326 12.232,12.2326 h 32.926 v 17.283 h -38.337 c -15.381,0 -28.827,-14.758 -28.827,-29.7452 0,-16.2992 13.216,-29.3844 28.597,-29.3844 h 38.567 z"
       id="path189"
       inkscape:connector-curvature="0"
       style="fill:#ffffff" />
    <path
       d="M 497.357,34.1227 V 116.799 H 464.103 V 98.3356 h 11.248 V 53.5374 H 464.103 V 34.1227 Z m 40.764,0 v 19.4147 h -11.249 v 44.7982 h 11.249 V 116.799 H 504.867 V 34.1227 Z"
       id="path191"
       inkscape:connector-curvature="0"
       style="fill:#ffffff" />
  </g>
  <defs
     id="defs198">
    <clipPath
       id="clip0">
      <rect
         width="564.703"
         height="165.918"
         transform="translate(0.645508,0.0820312)"
         id="rect195"
         x="0"
         y="0"
         style="fill:#ffffff" />
    </clipPath>
  </defs>
</svg>

<svg width="566" height="166" viewBox="0 0 566 166" fill="none" xmlns="http://www.w3.org/2000/svg">
<g clip-path="url(#clip0)">
<path d="M93.2541 29.663C99.4351 22.881 102.656 13.357 103.1 0.547031L103.116 0.0820312L102.661 0.175031C80.9531 4.61603 69.7421 18.222 69.3391 40.614L69.3311 41.05L69.7621 40.983C80.1031 39.364 87.7871 35.66 93.2541 29.663Z" fill="#6AB510"/>
<path d="M18.5479 144.838L18.9469 145.412C22.5349 150.588 26.6499 155.623 31.1759 160.383C34.6229 164.006 40.1139 166 46.6359 166C51.4159 166 56.3719 164.876 59.5709 163.066C66.1889 159.326 69.6959 159.318 72.2559 159.314C72.7699 159.314 73.2499 159.312 73.7119 159.285L74.1299 159.258C74.6839 159.223 75.2558 159.184 75.9008 159.184C78.1708 159.184 81.5609 159.629 87.7239 163.112C92.0249 164.917 96.1958 165.83 100.121 165.83C100.122 165.83 100.122 165.83 100.123 165.83C110.809 165.83 120.179 159.142 128.767 145.399L129.118 144.838H18.5479V144.838Z" fill="#1050AF"/>
<path d="M130.387 59.085C131.816 57.661 133.356 56.257 135.01 54.877L135.287 54.646L135.059 54.365C127.004 44.429 115.974 39.071 103.162 38.869L102.575 38.866C96.0825 38.866 90.3405 40.083 85.9715 42.385C80.3055 45.369 76.0915 46.031 76.0505 46.037C75.9765 46.047 75.5125 46.065 74.2405 46.065C72.6965 46.065 71.3635 46.04 71.2035 46.017L71.1015 46.004C69.2845 45.769 64.6535 45.007 60.8995 43.006C55.7975 40.286 50.1135 38.847 44.4625 38.847L44.0905 38.849C29.1485 39.016 16.6575 46.297 8.89648 59.085H130.387Z" fill="#6AB510"/>
<path d="M117.86 80.3271C119.33 73.2171 123.299 66.3141 129.771 59.7081L130.381 59.0851H8.89473L8.78773 59.2621C5.06473 65.4401 2.59873 72.5861 1.42773 80.3261L117.86 80.3271Z" fill="#FFBD11"/>
<path d="M120.706 101.311C117.768 95.276 116.325 88.303 117.787 80.769L117.871 80.332H1.43978L1.39378 80.642C0.408779 87.353 0.408779 94.3 1.31978 101.31H120.706V101.311Z" fill="#E78402"/>
<path d="M7.03843 123.325H140.096L140.875 121.64L140.555 121.482C134.187 118.329 125.65 111.427 120.79 101.515L120.689 101.31H1.31543L1.37043 101.724C2.18243 107.797 3.84243 115.174 7.03843 123.325Z" fill="#C62932"/>
<path d="M18.5496 144.838H129.106C133.327 137.997 136.807 130.465 139.864 123.846L140.104 123.326H7.05957L7.26057 123.828C10.1686 131.092 13.9456 138.111 18.5496 144.838Z" fill="#832973"/>
<path d="M172.9 74.9196H161.356C154.568 74.9196 149.124 80.462 149.124 87.2506C149.124 94.0392 154.535 99.4832 161.356 99.4832H168.21V116.766H155.945C140.564 116.766 127.118 102.008 127.118 87.021C127.118 70.7219 140.335 57.6366 155.716 57.6366H192.971V116.799H172.9V74.9196V74.9196Z" fill="white"/>
<path d="M224.619 134.082H204.549V57.6366H241.804C257.185 57.6366 270.401 70.7219 270.401 87.021C270.401 102.008 256.955 116.766 241.575 116.766H229.309V99.4832H236.163C242.952 99.4832 248.396 94.072 248.396 87.2506C248.396 80.4292 242.985 74.9196 236.163 74.9196H224.619V134.082V134.082Z" fill="white"/>
<path d="M298.572 134.082H278.501V57.6366H315.756C331.137 57.6366 344.354 70.7219 344.354 87.021C344.354 102.008 330.908 116.766 315.527 116.766H303.261V99.4832H310.115C316.904 99.4832 322.348 94.072 322.348 87.2506C322.348 80.4292 316.937 74.9196 310.115 74.9196H298.572V134.082V134.082Z" fill="white"/>
<path d="M372.656 39.5336V116.766H352.585V39.5336H372.656Z" fill="white"/>
<path d="M448.083 57.6366V74.8868L436.769 94.4983H414.632L425.947 74.9524H415.157C408.368 74.9524 402.925 80.4948 402.925 87.2834C402.925 94.072 408.336 99.516 415.157 99.516H448.083V116.799H409.746C394.365 116.799 380.919 102.041 380.919 87.0538C380.919 70.7546 394.135 57.6694 409.516 57.6694H448.083V57.6366Z" fill="white"/>
<path d="M497.357 34.1227V116.799H464.103V98.3356H475.351V53.5374H464.103V34.1227H497.357ZM538.121 34.1227V53.5374H526.872V98.3356H538.121V116.799H504.867V34.1227H538.121Z" fill="white"/>
</g>
<defs>
<clipPath id="clip0">
<rect width="564.703" height="165.918" fill="white" transform="translate(0.645508 0.0820312)"/>
</clipPath>
</defs>
</svg>
